svg/router.svg

<?xml version="1.0" encoding="UTF-8"?>
<svg xmlns="http://www.w3.org/2000/svg" xmlns:xlink="http://www.w3.org/1999/xlink" width="32" height="32" viewBox="0 0 32 32">
<path fill-rule="nonzero" fill="rgb(0%, 0%, 0%)" fill-opacity="1" d="M 29 16 C 29 23.179688 23.179688 29 16 29 C 8.820312 29 3 23.179688 3 16 C 3 8.820312 8.820312 3 16 3 C 23.179688 3 29 8.820312 29 16 M 15.25 13.5 L 16.75 13.5 L 17.351562 9.5 L 19 9.5 L 16 6 L 13 9.5 L 14.648438 9.5 Z M 16.75 18.5 L 15.25 18.5 L 14.648438 22.5 L 13 22.5 L 16 26 L 19 22.5 L 17.351562 22.5 Z M 14 16 L 10.5 13 L 10.5 14.636719 L 6 15.25 L 6 16.75 L 10.5 17.363281 L 10.5 19 Z M 26 15.25 L 21.5 14.636719 L 21.5 13 L 18 16 L 21.5 19 L 21.5 17.363281 L 26 16.75 Z M 26 15.25 "/>
</svg>

<svg role="img" viewBox="0 0 32 32" height="32" width="32" xmlns="http://www.w3.org/2000/svg"><path d="M29 16c0 7.18-5.82 13-13 13S3 23.18 3 16 8.82 3 16 3s13 5.82 13 13m-13.75-2.5h1.5l.602-4H19L16 6l-3 3.5h1.648Zm1.5 5h-1.5l-.602 4H13l3 3.5 3-3.5h-1.648ZM14 16l-3.5-3v1.637L6 15.25v1.5l4.5.613V19Zm12-.75-4.5-.613V13L18 16l3.5 3v-1.637l4.5-.613Zm0 0"/></svg>
